X:2077
T:Fred Bartell
O:England
M:6/8
L:1/8
S:Rodney Miller
C:Will Welling
K:D Dorian
DFG A3|A3 GFD|dcA G3|cdc AGF|DFG A3|A3 GFD|dcA GFG|AGF D3:|
de^f afa|bag edc|ABc c3|ega gec|de^f afa|bag edc|ABc edc|AGF D3:|


